icon-svg/tabbar-home.svg

<?xml version="1.0" encoding="UTF-8"?>
<svg width="32px" height="32px" viewBox="0 0 32 32" fill="#44739e" version="1.1" xmlns="http://www.w3.org/2000/svg" xmlns:xlink="http://www.w3.org/1999/xlink">
            <path d="M27.6631,14.191252 L16.7081,4.27825203 C16.3091,3.90825203 15.6921,3.90725203 15.2921,4.27525203 L4.3401,14.188252 C3.6391,14.832252 4.0951,16.000252 5.0471,16.000252 L6.9891,16.000252 L6.9761,27.000252 C6.9761,27.552252 7.4241,28.000252 7.9761,28.000252 L16.9871,28.000252 L16.9871,22.000252 C16.9871,21.447252 17.4351,21.000252 17.9881,21.000252 L19.9901,21.000252 C20.5441,21.000252 20.9921,21.447252 20.9921,22.000252 L20.9921,28.000252 L21.0061,28.000252 L23.9851,28.000252 C24.5381,28.000252 24.9861,27.552252 24.9861,27.000252 L25.0001,16.000252 L26.9531,16.000252 C27.9031,16.000252 28.3601,14.836252 27.6631,14.191252"></path>

</svg>

<svg xmlns="http://www.w3.org/2000/svg" fill="#44739e" viewBox="0 0 24 24"><path d="m27.6631 14.1913-10.955-9.913c-.399-.37-1.016-.371-1.416-.003l-10.952 9.913c-.701.644-.245 1.812.707 1.812h1.942l-.013 11c0 .552.448 1 1 1h9.011v-6c0-.553.448-1 1.001-1h2.002c.554 0 1.002.447 1.002 1v6h2.993c.553 0 1.001-.448 1.001-1l.014-11h1.953c.95 0 1.407-1.164.71-1.809"/></svg>
